src/assets/medium.svg

<?xml version="1.0" encoding="UTF-8" standalone="no"?>
<svg width="12px" height="10px" viewBox="0 0 12 10" version="1.1" xmlns="http://www.w3.org/2000/svg" xmlns:xlink="http://www.w3.org/1999/xlink">
    <!-- Generator: Sketch 50.2 (55047) - http://www.bohemiancoding.com/sketch -->
    <title>M</title>
    <desc>Created with Sketch.</desc>
    <defs>
        <polygon id="path-1" points="0 0 11 0 11 9 0 9"></polygon>
    </defs>
    <g id="Page-1" stroke="none" stroke-width="1" fill="none" fill-rule="evenodd">
        <g id="NEW---hovers-/-animation-/-icons" transform="translate(-271.000000, -3546.000000)">
            <g id="Nav-Icons" transform="translate(177.000000, 3535.000000)">
                <g id="Medium-Icon" transform="translate(83.180451, 0.551724)">
                    <g id="M" transform="translate(11.000000, 11.000000)">
                        <mask id="mask-2" fill="white">
                            <use xlink:href="#path-1"></use>
                        </mask>
                        <g id="Clip-2"></g>
                        <path d="M11,7.67666165 L11,8.99164536 L7.06963125,8.99164536 L7.06963125,7.67321426 L7.86671875,7.67321426 L7.86671875,1.83095488 C7.82395625,1.87658837 7.80786875,1.92520723 7.79463437,1.97460797 C7.1842375,4.25365244 6.5729125,6.53241258 5.96677812,8.81266541 C5.93061562,8.948784 5.88310937,9.00401331 5.737325,8.99889554 C5.37112812,8.98599448 5.00383125,8.98361329 4.637875,8.99942864 C4.465175,9.00689206 4.40780312,8.94167598 4.36500625,8.77794273 C3.77145312,6.50629061 3.17075,4.23662873 2.57131875,1.96664699 C2.5576375,1.91493614 2.53849062,1.86478906 2.5218875,1.81389564 C2.50968437,1.81698762 2.49744687,1.82007961 2.48520937,1.8231716 L2.48520937,7.68547559 L3.28765937,7.68547559 L3.28765937,8.99164536 L0,8.99164536 L0,7.67666165 C0.12574375,7.67751461 0.25155625,7.6807843 0.377265625,7.67865189 C0.643740625,7.6741383 0.827165625,7.48374998 0.827234375,7.21090864 C0.82768125,5.41396563 0.827715625,3.61698708 0.827234375,1.82004407 C0.82713125,1.53511909 0.634115625,1.32827571 0.360078125,1.31867988 C0.24014375,1.31448615 0.1200375,1.31604991 0,1.31498371 L0,0 L4.125,0 C4.57472812,1.73311299 5.02442187,3.46622598 5.47415,5.19933896 C5.5341,5.14386087 5.55317812,5.09577511 5.56624062,5.04601897 C5.87747187,3.86057893 6.18932187,2.67528104 6.49818125,1.48916574 C6.62719062,0.993736742 6.7496,0.49645966 6.875,0 C8.25,0 9.625,0 11,0 L11,1.31498371 C10.8741875,1.31604991 10.7482375,1.31384643 10.6225969,1.31889312 C10.3684281,1.32909313 10.1731094,1.53735812 10.1729719,1.80085242 C10.1721469,3.61048324 10.1721812,5.42011407 10.1729719,7.22974489 C10.173075,7.48161758 10.3585625,7.6730721 10.6054094,7.67847419 C10.7368594,7.68135294 10.8684469,7.67747907 11,7.67666165" id="Fill-1" fill="#FFFFFF" mask="url(#mask-2)"></path>
                    </g>
                </g>
            </g>
        </g>
    </g>
</svg>

<svg width="12" height="10" xmlns="http://www.w3.org/2000/svg" xmlns:xlink="http://www.w3.org/1999/xlink"><defs><path id="a" d="M0 0h11v9H0z"/></defs><g transform="translate(.18 .552)" fill="none" fill-rule="evenodd"><mask id="b" fill="#fff"><use xlink:href="#a"/></mask><path d="M11 7.677v1.315H7.07V7.673h.797V1.831a.311.311 0 0 0-.072.144c-.61 2.279-1.222 4.557-1.828 6.838-.036.136-.084.191-.23.186a14.037 14.037 0 0 0-1.1 0c-.172.008-.23-.057-.272-.221-.594-2.272-1.194-4.541-1.794-6.811-.013-.052-.033-.102-.05-.153l-.036.01v5.861h.803v1.307H0V7.677c.126 0 .252.004.377.002.267-.005.45-.195.45-.468V1.82c0-.285-.193-.492-.467-.501-.12-.005-.24-.003-.36-.004V0h4.125l1.35 5.2a.29.29 0 0 0 .091-.154c.311-1.185.623-2.37.932-3.557.13-.495.252-.993.377-1.489H11v1.315c-.126.001-.252-.001-.377.004a.471.471 0 0 0-.45.482V7.23c0 .252.186.443.432.448.132.003.263 0 .395-.001" fill="#FFF" mask="url(#b)"/></g></svg>
